outputs/icons/communication/unsubscribe_round.svg

<svg xmlns="http://www.w3.org/2000/svg" width="1200" height="1200" fill="none"><path fill="#000" d="M613.45 612.665a25 25 0 0 1-26.9 0L175 350v575h482.5q-.001 17.499 3.125 38.125c2.085 13.75 4.79 26.04 8.125 36.875H175q-30-.001-52.5-23.125C107.5 961.46 100 944.165 100 925V275q0-28.75 22.5-51.875T175 200h850c19.165 0 36.46 7.708 51.875 23.125Q1099.999 246.251 1100 275v363.75q-13.747-7.499-35.625-14.375T1025 613.75V350zm-26.72-79.73a24.99 24.99 0 0 0 26.54 0L1025 275H175zM966.25 1150q-97.005 0-165.375-67.5-68.376-67.499-68.375-165.02-.001-97.514 68.375-166.25 68.37-68.73 165.375-68.73t165.38 68.73Q1200 819.966 1200 917.48q0 97.521-68.37 165.02-68.376 67.5-165.38 67.5M825 912.5c0 13.805 11.195 25 25 25h232.5c13.805 0 25-11.195 25-25s-11.195-25-25-25H850c-13.805 0-25 11.195-25 25"/></svg>

<svg width="1200" height="1200" viewBox="0 0 1200 1200" fill="none" xmlns="http://www.w3.org/2000/svg"><path d="M613.45 612.665C605.245 617.9 594.755 617.9 586.55 612.665L175 350V925H416.25H657.5C657.5 936.665 658.54 949.375 660.625 963.125C662.71 976.875 665.415 989.165 668.75 1000H175C155 1000 137.5 992.29 122.5 976.875C107.5 961.46 100 944.165 100 925V275C100 255.834 107.5 238.542 122.5 223.125C137.5 207.708 155 200 175 200H1025C1044.165 200 1061.46 207.708 1076.875 223.125C1092.29 238.542 1100 255.834 1100 275V638.75C1090.835 633.75 1078.96 628.96 1064.375 624.375C1049.79 619.79 1036.665 616.25 1025 613.75V350L613.45 612.665ZM586.73 532.935C594.845 538.02 605.155 538.02 613.27 532.935L1025 275H175L586.73 532.935ZM966.25 1150C901.58 1150 846.455 1127.5 800.875 1082.5C755.29 1037.5 732.5 982.495 732.5 917.48C732.5 852.47 755.29 797.055 800.875 751.23C846.455 705.41 901.58 682.5 966.25 682.5C1030.92 682.5 1086.045 705.41 1131.63 751.23C1177.21 797.055 1200 852.47 1200 917.48C1200 982.495 1177.21 1037.5 1131.63 1082.5C1086.045 1127.5 1030.92 1150 966.25 1150ZM825 912.5C825 926.305 836.195 937.5 850 937.5H1082.5C1096.305 937.5 1107.5 926.305 1107.5 912.5C1107.5 898.695 1096.305 887.5 1082.5 887.5H850C836.195 887.5 825 898.695 825 912.5Z" fill="#1D1E23"/></svg>
